build/assets/images/svg/food/10-zamorozhennyye_ovoshchi_yagody.svg

<svg width="28" height="28" viewBox="0 0 28 28" fill="none" xmlns="http://www.w3.org/2000/svg">
<path d="M24.5328 17.7906L24.0883 18.0461L24.1373 17.2621C24.1443 17.1431 24.1058 17.0241 24.0253 16.9331C23.9448 16.8421 23.8328 16.7896 23.7138 16.7791C23.5948 16.7686 23.4723 16.8071 23.3848 16.8876C23.2938 16.9681 23.2413 17.0801 23.2343 17.2026L23.1468 18.5886L21.2918 19.6596V17.5176L22.4468 16.7476C22.5798 16.6566 22.6568 16.5026 22.6463 16.3416C22.6358 16.1806 22.5413 16.0371 22.3943 15.9636C22.2508 15.8936 22.0758 15.9041 21.9428 15.9916L21.2883 16.4256V15.9146C21.2883 15.6661 21.0853 15.4631 20.8368 15.4631C20.5883 15.4631 20.3853 15.6661 20.3853 15.9146V16.4256L19.7308 15.9881C19.5978 15.8971 19.4228 15.8866 19.2793 15.9601C19.1358 16.0336 19.0378 16.1736 19.0273 16.3381C19.0168 16.4991 19.0938 16.6531 19.2268 16.7441L20.3818 17.5141V19.6561L18.5268 18.5851L18.4358 17.1991C18.4288 17.0801 18.3763 16.9646 18.2853 16.8876C18.1943 16.8106 18.0753 16.7686 17.9563 16.7791C17.8373 16.7861 17.7253 16.8421 17.6448 16.9331C17.5643 17.0241 17.5258 17.1396 17.5328 17.2621L17.5853 18.0461L17.1408 17.7906C17.0008 17.7101 16.8258 17.7066 16.6858 17.7871C16.5458 17.8676 16.4583 18.0181 16.4583 18.1791C16.4583 18.3401 16.5458 18.4906 16.6858 18.5711L17.1303 18.8266L16.4268 19.1766C16.2028 19.2886 16.1083 19.5581 16.2203 19.7856C16.3323 20.0096 16.6018 20.1041 16.8293 19.9921L18.0753 19.3726L19.9303 20.4436L18.0753 21.5146L16.8293 20.8986C16.6053 20.7901 16.3358 20.8811 16.2238 21.1051C16.1118 21.3291 16.2028 21.5986 16.4268 21.7106L17.1303 22.0606L16.6858 22.3161C16.5458 22.3966 16.4583 22.5471 16.4583 22.7081C16.4583 22.8691 16.5458 23.0196 16.6858 23.1001C16.8258 23.1806 17.0008 23.1806 17.1408 23.0966L17.5853 22.8411L17.5363 23.6251C17.5293 23.7441 17.5678 23.8631 17.6483 23.9541C17.7288 24.0451 17.8408 24.0976 17.9598 24.1081H17.9878C18.2258 24.1081 18.4253 23.9226 18.4393 23.6846L18.5303 22.2986L20.3853 21.2276V23.3696L19.2303 24.1396C19.0238 24.2796 18.9678 24.5596 19.1043 24.7661C19.2408 24.9726 19.5243 25.0286 19.7308 24.8921L20.3853 24.4581V24.9691C20.3853 25.2176 20.5883 25.4206 20.8368 25.4206C21.0853 25.4206 21.2883 25.2176 21.2883 24.9691V24.4581L21.9428 24.8956C22.1493 25.0356 22.4328 24.9796 22.5693 24.7696C22.7058 24.5596 22.6533 24.2796 22.4433 24.1431L21.2883 23.3731V21.2311L23.1433 22.3021L23.2343 23.6881C23.2483 23.9261 23.4478 24.1116 23.6858 24.1116H23.7138C23.8328 24.1046 23.9448 24.0486 24.0253 23.9576C24.1058 23.8666 24.1443 23.7511 24.1373 23.6286L24.0848 22.8411L24.5293 23.0966C24.6693 23.1771 24.8443 23.1806 24.9843 23.1001C25.1243 23.0196 25.2118 22.8691 25.2118 22.7081C25.2118 22.5471 25.1243 22.3966 24.9843 22.3161L24.5398 22.0606L25.2433 21.7106C25.4673 21.5986 25.5548 21.3291 25.4463 21.1051C25.3343 20.8811 25.0648 20.7901 24.8408 20.8986L23.5948 21.5146L21.7398 20.4436L23.5948 19.3726L24.8408 19.9921C25.0648 20.1006 25.3343 20.0096 25.4463 19.7856C25.5583 19.5616 25.4673 19.2921 25.2433 19.1801L24.5398 18.8301L24.9843 18.5746C25.1243 18.4941 25.2118 18.3436 25.2118 18.1826C25.2118 18.0216 25.1243 17.8711 24.9843 17.7906C24.8443 17.7101 24.6728 17.7101 24.5328 17.7906Z" fill="#203686"/>
<path d="M26.1077 13.9548C26.3772 13.8288 26.6222 13.6573 26.8357 13.4473C28.0362 12.2468 27.8437 10.0943 26.3982 8.64532C26.0027 8.25332 25.5372 7.93832 25.0227 7.72482C25.6702 6.48932 25.3342 4.78832 24.1232 3.57732C22.9122 2.36632 21.2077 2.03032 19.9757 2.67782C19.7622 2.16332 19.4472 1.69432 19.0517 1.29882C17.6062 -0.139682 15.4502 -0.335684 14.2532 0.864816C14.0432 1.07482 13.8717 1.32332 13.7457 1.59282C12.9582 0.903317 11.9467 0.528818 10.9037 0.532318H10.9002C8.45725 0.542818 6.48324 2.52032 6.47274 4.95982C6.46924 6.10782 6.92424 7.21032 7.73974 8.01882C7.83424 8.10982 7.92874 8.19732 8.02674 8.28132C7.59624 9.24382 7.56824 10.3358 7.95324 11.3193C7.76424 13.1463 6.97324 14.8578 5.70974 16.1843L0.862238 21.0318C0.330238 21.5848 0.34424 22.4668 0.89724 23.0023L4.70174 26.8033C4.97124 27.0763 5.33874 27.2303 5.72374 27.2338C6.08074 27.2373 6.42374 27.0973 6.67574 26.8453L11.5232 21.9978C12.2477 21.2873 13.1122 20.7343 14.0572 20.3668C14.0572 20.3948 14.0537 20.4193 14.0537 20.4473C14.0502 23.2088 15.7232 25.7008 18.2817 26.7438C20.8402 27.7868 23.7767 27.1743 25.7052 25.1968C27.6337 23.2193 28.1727 20.2688 27.0702 17.7383C27.3642 16.3978 27.0107 14.9908 26.1077 13.9548ZM7.37574 4.96332C7.38624 3.02082 8.95774 1.44932 10.8967 1.43882C11.8032 1.43532 12.6747 1.79232 13.3152 2.43632C13.4132 2.53782 13.5042 2.64282 13.5917 2.75482C13.7037 2.89832 13.8892 2.96132 14.0642 2.91582C14.2392 2.87032 14.3687 2.72332 14.3967 2.54482C14.4457 2.15632 14.6172 1.79582 14.8902 1.51232C15.7407 0.661819 17.3192 0.857821 18.4077 1.94632C18.8382 2.37682 19.1427 2.91582 19.2897 3.50732C19.3282 3.66132 19.4437 3.78732 19.5942 3.83632C19.7447 3.88532 19.9127 3.84682 20.0317 3.73832C20.9067 2.94732 22.4187 3.16432 23.4792 4.22482C24.5397 5.28532 24.7532 6.80082 23.9657 7.67232C23.8572 7.79132 23.8222 7.95582 23.8677 8.10982C23.9167 8.26382 24.0392 8.37932 24.1967 8.41782C24.7882 8.56132 25.3272 8.86582 25.7542 9.29632C26.8392 10.3883 27.0387 11.9668 26.1882 12.8173C25.9047 13.0868 25.5442 13.2618 25.1557 13.3108C24.9772 13.3388 24.8302 13.4683 24.7847 13.6433C24.7392 13.8183 24.8022 14.0038 24.9457 14.1158C25.6527 14.6583 26.1147 15.4633 26.2302 16.3488C24.8162 14.4798 22.5342 13.4753 20.1997 13.6923C17.8652 13.9093 15.8107 15.3198 14.7677 17.4198C13.8682 16.1318 13.8507 14.4973 14.8062 13.5418C14.9847 13.3633 14.9812 13.0798 14.8062 12.9013C14.6312 12.7228 14.3442 12.7263 14.1657 12.9013C13.6092 13.4368 12.8427 13.6923 12.0762 13.6048C11.1837 13.5138 10.3542 13.1113 9.72774 12.4708C8.54474 11.2878 8.23325 9.58332 8.98575 8.41432C9.11875 8.20782 9.06274 7.93132 8.85974 7.79482C8.68474 7.67582 8.52375 7.54282 8.37325 7.39232C7.73625 6.74132 7.37574 5.86982 7.37574 4.96332ZM13.3152 16.3208C13.4097 16.7198 13.5532 17.1048 13.7492 17.4653C12.9862 17.6158 12.2372 17.8363 11.5127 18.1233L13.3152 16.3208ZM10.2387 13.9513C10.5992 14.1473 10.9807 14.2943 11.3797 14.3888L9.57724 16.1878C9.86423 15.4633 10.0847 14.7143 10.2387 13.9513ZM10.8722 21.3573L6.02474 26.2083C5.82174 26.3798 5.52074 26.3623 5.33874 26.1698L3.43824 24.2693V24.2658L1.53775 22.3618C1.34175 22.1798 1.32424 21.8753 1.50274 21.6723L6.34674 16.8248C7.49474 15.6488 8.28575 14.1753 8.63575 12.5688C8.77575 12.7543 8.92974 12.9328 9.09424 13.0973C9.19924 13.2023 9.31124 13.2933 9.41974 13.3878C9.28324 14.2278 9.05574 15.0538 8.74074 15.8448C8.57624 16.2438 8.71974 16.7023 9.08024 16.9368C9.23074 17.0383 9.40575 17.0908 9.58775 17.0908C9.82925 17.0908 10.0602 16.9928 10.2282 16.8213L12.5557 14.4938C12.8147 14.4833 13.0702 14.4448 13.3222 14.3818C13.2592 14.6303 13.2242 14.8858 13.2137 15.1413L10.8792 17.4758C10.5677 17.7768 10.5117 18.2598 10.7532 18.6238C10.9912 18.9878 11.4532 19.1313 11.8557 18.9633C12.6502 18.6483 13.4727 18.4173 14.3162 18.2808C14.3372 18.3053 14.3617 18.3298 14.3827 18.3578C14.2777 18.6868 14.2007 19.0228 14.1447 19.3658C12.9197 19.7718 11.8032 20.4543 10.8792 21.3538L10.8722 21.3573ZM20.8367 26.3308C17.5852 26.3308 14.9532 23.6953 14.9532 20.4473C14.9532 17.1958 17.5887 14.5638 20.8367 14.5638C24.0882 14.5638 26.7202 17.1993 26.7202 20.4473C26.7167 23.6953 24.0847 26.3273 20.8367 26.3308Z" fill="#203686"/>
<path d="M14.0538 6.79022C14.2638 6.92322 14.5438 6.86372 14.6768 6.65372C15.0793 6.02372 15.2228 5.26072 15.0758 4.52571C15.0268 4.28071 14.7853 4.12321 14.5403 4.17221C14.2953 4.22121 14.1378 4.46272 14.1868 4.70772C14.2883 5.21172 14.1903 5.73671 13.9138 6.17071C13.7878 6.37721 13.8473 6.65372 14.0538 6.79022Z" fill="#203686"/>
<path d="M14.4457 7.53262C14.2952 7.73212 14.3302 8.01562 14.5297 8.16612C15.1387 8.64212 15.4887 9.37712 15.4712 10.1471C15.4642 10.3956 15.6602 10.6056 15.9087 10.6126H15.9227C16.1677 10.6126 16.3672 10.4201 16.3742 10.1751C16.3987 9.11112 15.9192 8.09962 15.0792 7.44512C14.9847 7.37162 14.8622 7.34012 14.7432 7.35412C14.6277 7.37512 14.5192 7.43812 14.4457 7.53262Z" fill="#203686"/>
<path d="M17.7357 7.79845C17.8197 7.79845 17.9037 7.77395 17.9737 7.72845C18.7647 7.22795 19.2967 6.41245 19.4367 5.48495C19.4647 5.32045 19.4052 5.15595 19.2757 5.05095C19.1462 4.94595 18.9712 4.92145 18.8172 4.98445C18.6632 5.04745 18.5582 5.19095 18.5407 5.35545C18.4427 6.01695 18.0577 6.60145 17.4942 6.95845C17.3227 7.06695 17.2422 7.27345 17.2982 7.46945C17.3542 7.66545 17.5327 7.79845 17.7357 7.79845Z" fill="#203686"/>
<path d="M10.8723 6.93751C10.9458 6.93751 11.0228 6.92001 11.0858 6.88151C11.5128 6.65401 12.0063 6.59101 12.4753 6.70651C12.7168 6.76601 12.9653 6.61901 13.0248 6.37751C13.0843 6.13601 12.9373 5.88752 12.6958 5.82802C12.0098 5.66002 11.2818 5.75101 10.6588 6.08701C10.4768 6.18501 10.3858 6.39501 10.4348 6.59801C10.4873 6.79751 10.6658 6.93751 10.8723 6.93751Z" fill="#203686"/>
<path d="M20.8158 11.3995C20.9173 11.4625 21.0398 11.4835 21.1588 11.4555C21.2743 11.4275 21.3758 11.3575 21.4423 11.2525C21.7993 10.6855 22.3838 10.304 23.0453 10.206C23.2938 10.171 23.4653 9.93999 23.4268 9.69149C23.3883 9.44299 23.1608 9.27149 22.9123 9.30999C21.9883 9.44999 21.1693 9.98199 20.6688 10.773C20.5428 10.9865 20.6058 11.2665 20.8158 11.3995Z" fill="#203686"/>
<path d="M7.31976 17.1536L4.41126 20.0621C4.29226 20.1741 4.24676 20.3456 4.28876 20.5031C4.33076 20.6606 4.45326 20.7866 4.61076 20.8251C4.76826 20.8671 4.93625 20.8181 5.05175 20.7026L7.96025 17.7941C8.13175 17.6156 8.12826 17.3356 7.95326 17.1606C7.77826 16.9856 7.49826 16.9821 7.31976 17.1536Z" fill="#203686"/>
<path d="M3.11621 21.357L2.79422 21.679C2.67522 21.791 2.62972 21.9625 2.67172 22.12C2.71372 22.2775 2.83621 22.4035 2.99371 22.442C3.15121 22.484 3.31921 22.435 3.43471 22.3195L3.75672 21.9975C3.92822 21.819 3.92471 21.539 3.74971 21.364C3.57821 21.189 3.29471 21.1855 3.11621 21.357Z" fill="#203686"/>
</svg>

<svg width="28" height="28" fill="none" xmlns="http://www.w3.org/2000/svg"><path d="M24.533 17.79l-.445.256.05-.784a.456.456 0 00-.424-.483.434.434 0 00-.33.109.45.45 0 00-.15.315l-.087 1.386-1.855 1.07v-2.141l1.155-.77a.455.455 0 00-.504-.756l-.655.434v-.511a.453.453 0 00-.903 0v.51l-.654-.437a.445.445 0 00-.452-.028.457.457 0 00-.252.378.457.457 0 00.2.406l1.155.77v2.142l-1.855-1.07-.091-1.387a.442.442 0 00-.48-.42.453.453 0 00-.423.483l.052.784-.444-.255a.459.459 0 00-.455-.004.454.454 0 00-.228.392c0 .161.088.312.228.392l.444.256-.703.35a.455.455 0 10.402.815l1.246-.62 1.855 1.072-1.855 1.07-1.246-.615a.455.455 0 00-.605.206.45.45 0 00.203.606l.703.35-.444.255a.454.454 0 00-.228.392.45.45 0 00.682.388l.445-.255-.049.784a.456.456 0 00.424.483h.028a.452.452 0 00.451-.423l.091-1.386 1.855-1.071v2.142l-1.155.77a.455.455 0 00-.126.626c.137.207.42.263.627.126l.654-.434v.511a.453.453 0 00.903 0v-.51l.655.437c.206.14.49.084.626-.126a.45.45 0 00-.126-.627l-1.155-.77v-2.142l1.855 1.071.091 1.386a.452.452 0 00.452.424h.028a.453.453 0 00.423-.483l-.052-.788.444.256c.14.08.315.084.455.003a.454.454 0 00.228-.392.454.454 0 00-.228-.392l-.444-.255.703-.35a.453.453 0 00-.402-.812l-1.246.616-1.855-1.071 1.855-1.071 1.246.62a.455.455 0 00.605-.207.45.45 0 00-.203-.606l-.703-.35.444-.255a.454.454 0 00.228-.392.454.454 0 00-.68-.392z" fill="#203686"/><path d="M26.108 13.955a2.62 2.62 0 00.728-.508c1.2-1.2 1.008-3.353-.438-4.802a4.297 4.297 0 00-1.375-.92c.647-1.236.311-2.937-.9-4.148-1.21-1.21-2.915-1.547-4.147-.9a4.265 4.265 0 00-.924-1.378C17.606-.14 15.45-.336 14.253.865a2.57 2.57 0 00-.507.728 4.291 4.291 0 00-2.842-1.06H10.9A4.446 4.446 0 006.473 4.96a4.288 4.288 0 001.554 3.32 3.926 3.926 0 00-.074 3.038 8.293 8.293 0 01-2.243 4.865L.862 21.032a1.397 1.397 0 00.035 1.97l3.805 3.801c.27.273.637.427 1.022.43.357.004.7-.136.952-.388l4.847-4.847a7.5 7.5 0 012.534-1.631c0 .028-.003.052-.003.08a6.79 6.79 0 0011.652 4.75 6.798 6.798 0 001.364-7.459 4.345 4.345 0 00-.962-3.783zM7.376 4.963a3.543 3.543 0 013.52-3.524 3.39 3.39 0 012.42.997c.097.102.188.207.276.319a.454.454 0 00.472.16.455.455 0 00.333-.37c.049-.389.22-.75.493-1.033.85-.85 2.43-.654 3.518.434.43.43.735.97.882 1.561a.447.447 0 00.742.231c.875-.79 2.387-.574 3.447.487 1.06 1.06 1.274 2.576.487 3.447a.454.454 0 00.23.746 3.282 3.282 0 011.558.878c1.085 1.092 1.285 2.67.434 3.521a1.83 1.83 0 01-1.032.494.455.455 0 00-.371.332.454.454 0 00.16.473 3.363 3.363 0 011.285 2.233 6.776 6.776 0 00-6.03-2.657 6.764 6.764 0 00-5.432 3.728c-.9-1.288-.917-2.923.038-3.878a.453.453 0 00-.64-.64 2.588 2.588 0 01-2.09.703 3.828 3.828 0 01-2.348-1.134c-1.183-1.183-1.495-2.888-.742-4.057a.453.453 0 00-.126-.62 3.34 3.34 0 01-.487-.402 3.478 3.478 0 01-.997-2.429zm5.94 11.358c.094.399.237.784.433 1.144a12.74 12.74 0 00-2.236.658l1.802-1.802zm-3.077-2.37c.36.196.742.343 1.14.438l-1.802 1.799c.287-.725.508-1.474.662-2.237zm.633 7.406l-4.847 4.851a.5.5 0 01-.686-.038l-1.9-1.9v-.004l-1.901-1.904a.494.494 0 01-.035-.69l4.844-4.847a8.755 8.755 0 002.289-4.256c.14.185.294.364.458.528.105.105.217.196.326.29-.137.84-.364 1.667-.68 2.458a.895.895 0 00.34 1.092.902.902 0 001.148-.116l2.328-2.327c.259-.01.514-.05.766-.112a3.715 3.715 0 00-.108.76l-2.335 2.334a.903.903 0 00-.126 1.148c.238.364.7.507 1.103.34a11.776 11.776 0 012.46-.683c.021.024.046.049.067.077a7.034 7.034 0 00-.238 1.008 8.536 8.536 0 00-3.266 1.988l-.007.003zm9.965 4.974a5.883 5.883 0 110-11.767 5.883 5.883 0 110 11.767z" fill="#203686"/><path d="M14.054 6.79c.21.133.49.074.623-.136a2.9 2.9 0 00.399-2.128.455.455 0 00-.89.182 1.993 1.993 0 01-.272 1.463.46.46 0 00.14.62zm.392.743a.45.45 0 00.084.633c.609.476.959 1.211.941 1.981a.453.453 0 00.438.466h.014a.45.45 0 00.451-.438 3.36 3.36 0 00-1.295-2.73.462.462 0 00-.336-.09.49.49 0 00-.297.178zm3.29.265a.44.44 0 00.238-.07 3.217 3.217 0 001.463-2.243.453.453 0 10-.896-.13 2.3 2.3 0 01-1.047 1.603.455.455 0 00.242.84zm-6.864-.86c.074 0 .15-.018.214-.056.427-.228.92-.291 1.39-.175.24.059.49-.088.549-.33a.455.455 0 00-.33-.549 2.862 2.862 0 00-2.036.259.453.453 0 00.213.85zm9.944 4.462a.452.452 0 00.343.056.462.462 0 00.283-.204 2.29 2.29 0 011.603-1.046.45.45 0 00.382-.515.451.451 0 00-.515-.381 3.225 3.225 0 00-2.243 1.463.464.464 0 00.147.627zM7.32 17.154l-2.91 2.908a.449.449 0 00-.122.441.448.448 0 00.322.322.459.459 0 00.44-.122l2.91-2.909a.451.451 0 00-.008-.633.451.451 0 00-.633-.007zm-4.204 4.203l-.322.322a.449.449 0 00-.122.441.448.448 0 00.322.322.459.459 0 00.44-.122l.323-.323a.451.451 0 00-.007-.633.451.451 0 00-.634-.007z" fill="#203686"/></svg>
